src/assets/img/trending.svg

<svg
  width="16"
  height="21"
  viewBox="0 0 16 21"
  fill="none" xmlns="http://www.w3.org/2000/svg">
  <path
  opacity="0.4"
  fill-rule="evenodd"
  clip-rule="evenodd"
  d="M13.615 7.20041C15.1323 8.51081 16 10.1175 16 12.321C16 16.9118 12.4133 20.5268 8.0115 20.5268C3.60573 20.5268 0 16.9093 0 12.321C0 9.79412 0.547583 8.23242 2.15502 5.6366C2.66365 4.81522 3.89867 5.11434 3.99436 6.08209C4.08034 6.95167 4.34435 7.69187 4.729 8.25935C4.47244 5.19295 5.80372 1.74433 9.08631 0.10596C9.84629 -0.27335 10.6943 0.424512 10.4966 1.26648C9.98409 3.44851 10.5121 4.62244 11.8924 5.88709C11.926 5.91795 12.098 6.04489 12.3254 6.21279C12.7373 6.51686 13.3311 6.95524 13.615 7.20041ZM2.62075 9.00737C2.33897 9.66335 2 10.4525 2 12.321C2 15.7681 4.70107 18.478 8.0115 18.478C11.3159 18.478 14 15.7727 14 12.321C14 10.7811 13.4246 9.71578 12.3258 8.76679C12.1524 8.61699 11.7458 8.31456 11.3632 8.0299C11.0014 7.76076 10.6609 7.5075 10.559 7.41416C9.23392 6.20002 8.4238 4.9071 8.31376 3.18307C7.64377 3.85212 6.10424 5.93208 6.97198 10.0484C7.1065 10.6865 6.6318 11.289 5.99451 11.289C4.73006 11.289 3.48016 10.2984 2.71627 8.78204C2.68562 8.85634 2.65357 8.93095 2.62075 9.00737Z"
  fill="white"/>
</svg>

<svg
  width="16"
  height="21"
  fill="none"
  xmlns="http://www.w3.org/2000/svg">
  <path
  opacity=".4"
  fill-rule="evenodd"
  clip-rule="evenodd"
  d="M13.615 7.2C15.132 8.51 16 10.117 16 12.321c0 4.59-3.587 8.206-7.989 8.206C3.606 20.527 0 16.909 0 12.32c0-2.527.548-4.089 2.155-6.684.509-.822 1.744-.523 1.84.445.085.87.35 1.61.734 2.177C4.472 5.193 5.804 1.744 9.086.106c.76-.38 1.608.319 1.41 1.16-.512 2.183.016 3.356 1.396 4.621.034.031.206.158.433.326.412.304 1.006.742 1.29.987ZM2.621 9.007C2.339 9.663 2 10.453 2 12.321c0 3.447 2.701 6.157 6.011 6.157 3.305 0 5.989-2.705 5.989-6.157 0-1.54-.575-2.605-1.674-3.554-.174-.15-.58-.452-.963-.737-.362-.27-.702-.522-.804-.616C9.234 6.2 8.424 4.907 8.314 3.184c-.67.668-2.21 2.748-1.342 6.864.134.639-.34 1.241-.977 1.241-1.265 0-2.515-.99-3.279-2.507-.03.074-.062.149-.095.225Z"
  fill="#fff"/>
</svg>
